X:12541
T:O allez-vous la belle
R:Ronde
A:Normandie
O:France
M:2/4
L:1/8
Q:1/4=120
K:Bb
B/2 Bc|A2 F2|B>B Bc|A2F2|1B3/2:|2B2 FB|
|B>B cc|d>c BB|AA d/2c/2B|A2|
|:d>c| B>A GF|BB d>c|B>A GF|A2:||
W:
W: O allez-vous la belle
W: O allez-vous jouer  (bis)
W:Je ne m'en vais pas jouer
W:Je m'en vais m'y baigner, lonla
W:Attendez-moi l bergre,
W:Bergre attendez-moi.
W:
W:La bell' en vous baignant
W:Prenez gad' d'y tomber (bis)
W:Elle mit un pied dans l'eau,
W:Mais l'autr' il a gliss, lonla !
W:
W:Ell' fit trois tours dans l'eau
W:Sans pouvoir s'attraper (bis)
W:Elle se mit  nager
W:Comme un vaillant poisson, lonla !
W:
W:Quand ell' sortit de l'eau
W:Sa jupe tait mouille (bis)
W:Elle s'en fut se scher
W:Dessous un vert pommier, lonla !
W:
W:Vert pommier, vert pommier
W:Que tu es bien fleuri (bis)
W:Il n'est pas tant fleuri
W:Que mon coeur est pris, lonla !
W:
W:Il n'faut qu'un coup de vent
W:Poura battre le fleurs (bis)
W:Et moi qu'un doux baiser
W:Pour soulger mon coeur, lonla !
